dist/svgs/google.svg

<svg xmlns="http://www.w3.org/2000/svg" viewBox="0 0 512 512"><path d="M372 53h-7q20 26 20 67 0 26-12 43t-39 38q-17 13-22 19t-5 16q0 5 12 17t26 21q34 23 48 48.5t14 63.5q0 26-12.5 49T359 475t-55 27-70 10-70.5-7-56.5-20.5-38-32T55 410q0-25 13.5-47t37-38.5 55-26T228 289h3q-9-16-9-34v-8l2-9q-60-1-97-34.5T90 117q0-25 12.5-46t34-37T186 9t59-9h198l-27 22-37 29-3 2h-4zm-199 54q3 18 10.5 33.5t18 27.5 23 19 26.5 7q26 1 41-22t10-58q-5-34-27-55t-51-22q-27-1-41.5 17.5T173 107zm143 243q-3-2-7-5t-9-7q-2 0-8.5-4.5T281 326h1l-3-1 2 1q-20-5-36-5-22 0-41.5 5.5t-34 15-23 22T138 390q0 29 27.5 50t68.5 21q57 0 82-18t25-51q0-5-2-13t-7-14.5-16-14.5z"/></svg>

<?xml version="1.0" encoding="UTF-8" standalone="no"?><svg   xmlns:svg="http://www.w3.org/2000/svg"   xmlns="http://www.w3.org/2000/svg"   version="1.1"   width="512"   height="512"   viewBox="0 0 512 512">  <path     d="M372 53H365Q385 79 385 120Q385 146 373 163T334 201Q317 214 312 220T307 236Q307 241 319 253T345 274Q379 297 393 322.5T407 386Q407 412 394.5 435T359 475T304 502T234 512T163.5 505T107 484.5T69 452.5T55 410Q55 385 68.5 363T105.5 324.5T160.5 298.5T228 289H231Q222 273 222 255V247T224 238Q164 237 127 203.5T90 117Q90 92 102.5 71T136.5 34T186 9T245 0H408H443L416 22L379 51L376 53H372zM173 107Q176 125 183.5 140.5T201.5 168T224.5 187T251 194Q277 195 292 172T302 114Q297 80 275 59T224 37Q197 36 182.5 54.5T173 107zM316 350Q313 348 309 345T300 338Q298 338 291.5 333.5T281 326H282L279 325L281 326Q261 321 245 321Q223 321 203.5 326.5T169.5 341.5T146.5 363.5T138 390Q138 419 165.5 440T234 461Q291 461 316 443T341 392Q341 387 339 379T332 364.5T316 350z"     id="google" /></svg>
